svgs/solid/files-medical.svg

<svg xmlns="http://www.w3.org/2000/svg" viewBox="0 0 448 512"><!--! Font Awesome Pro 6.6.0 by @fontawesome - https://fontawesome.com License - https://fontawesome.com/license (Commercial License) Copyright 2024 Fonticons, Inc. --><path d="M160 0L320 0l0 96c0 17.7 14.3 32 32 32l96 0 0 224c0 35.3-28.7 64-64 64l-224 0c-35.3 0-64-28.7-64-64L96 64c0-35.3 28.7-64 64-64zM416 64l32 32-45.3 0L384 96l-32 0 0-32 0-18.7L352 0l32 32 32 32zM24 96c13.3 0 24 10.7 24 24l0 256c0 48.6 39.4 88 88 88l192 0c13.3 0 24 10.7 24 24s-10.7 24-24 24l-192 0C60.9 512 0 451.1 0 376L0 120c0-13.3 10.7-24 24-24zm216 80l0 48-48 0c-8.8 0-16 7.2-16 16l0 32c0 8.8 7.2 16 16 16l48 0 0 48c0 8.8 7.2 16 16 16l32 0c8.8 0 16-7.2 16-16l0-48 48 0c8.8 0 16-7.2 16-16l0-32c0-8.8-7.2-16-16-16l-48 0 0-48c0-8.8-7.2-16-16-16l-32 0c-8.8 0-16 7.2-16 16z"/></svg>

<svg xmlns="http://www.w3.org/2000/svg" viewBox="0 0 448 512"><!--! Font Awesome Pro 6.4.2 by @fontawesome - https://fontawesome.com License - https://fontawesome.com/license (Commercial License) Copyright 2023 Fonticons, Inc. --><path d="M160 0H320V96c0 17.7 14.3 32 32 32h96V352c0 35.3-28.7 64-64 64H160c-35.3 0-64-28.7-64-64V64c0-35.3 28.7-64 64-64zM416 64l32 32H402.7 384 352V64 45.3 0l32 32 32 32zM24 96c13.3 0 24 10.7 24 24V376c0 48.6 39.4 88 88 88H328c13.3 0 24 10.7 24 24s-10.7 24-24 24H136C60.9 512 0 451.1 0 376V120c0-13.3 10.7-24 24-24zm216 80v48H192c-8.8 0-16 7.2-16 16v32c0 8.8 7.2 16 16 16h48v48c0 8.8 7.2 16 16 16h32c8.8 0 16-7.2 16-16V288h48c8.8 0 16-7.2 16-16V240c0-8.8-7.2-16-16-16H304V176c0-8.8-7.2-16-16-16H256c-8.8 0-16 7.2-16 16z"/></svg>
